dist/img/footer/icon-1.svg

<svg width="22" height="24" viewBox="0 0 22 24" fill="none" xmlns="http://www.w3.org/2000/svg">
<path d="M19.7142 2.75381C17.9092 0.984191 14.991 0.126747 11.0392 0.20401C7.05445 0.282381 4.39087 0.981777 2.65676 2.40512C0.980104 3.78117 0.199219 5.79475 0.199219 8.74193V11.7498C0.199219 15.2291 2.0636 19.0541 5.62688 19.6329C6.03825 19.7002 6.42578 19.4205 6.49258 19.009C6.55938 18.5978 6.2801 18.2101 5.86873 18.1433C3.16642 17.7044 1.70827 14.5216 1.70827 11.7498V8.74193C1.70827 4.51598 3.27417 1.86598 11.0687 1.71266C14.6024 1.64264 17.1529 2.35602 18.6576 3.83127C19.8301 4.98107 20.4001 6.58731 20.4001 8.74193V11.7498C20.4001 16.3045 18.3558 18.3135 13.1123 18.905H9.39419C9.19409 18.905 9.00213 18.9845 8.86069 19.126L6.24087 21.7459C5.9462 22.0405 5.9462 22.5183 6.24087 22.813C6.38815 22.9602 6.58131 23.034 6.77437 23.034C6.96743 23.034 7.16059 22.9603 7.30787 22.813L9.70676 20.4141H13.1544C13.1822 20.4141 13.2101 20.4126 13.2377 20.4094C16.2386 20.0761 18.2935 19.2952 19.7044 17.9515C21.188 16.5386 21.9093 14.51 21.9093 11.7497V8.74193C21.9093 6.19676 21.1707 4.18208 19.7142 2.75381Z" fill="white"/>
<path d="M11.5261 5.12736C11.5262 5.12736 11.5262 5.12736 11.5264 5.12736C12.7422 5.12736 13.8853 5.6009 14.745 6.46066C15.6049 7.32052 16.0784 8.46378 16.0783 9.67977C16.0783 10.0965 16.4161 10.4343 16.8328 10.4343C16.8329 10.4343 16.8329 10.4343 16.8329 10.4343C17.2496 10.4343 17.5874 10.0966 17.5874 9.67988C17.5875 8.06076 16.957 6.53853 15.8121 5.39366C14.6674 4.24879 13.1454 3.61841 11.5264 3.61841C11.5263 3.61841 11.526 3.61841 11.5259 3.61841C11.1092 3.61841 10.7715 3.95624 10.7715 4.37294C10.7716 4.78953 11.1094 5.12736 11.5261 5.12736Z" fill="white"/>
<path d="M11.5259 7.78078C12.573 7.78098 13.425 8.63289 13.4251 9.67988C13.4252 10.0966 13.7629 10.4344 14.1797 10.4343C14.5965 10.4343 14.9343 10.0964 14.9342 9.67968C14.9339 7.8008 13.4051 6.27203 11.5261 6.27173H11.526C11.1093 6.27173 10.7716 6.60945 10.7715 7.02615C10.7715 7.44286 11.1092 7.78078 11.5259 7.78078Z" fill="white"/>
<path d="M8.14264 9.07322C7.79867 9.30843 7.71044 9.77795 7.94555 10.1219C8.18066 10.4659 8.65028 10.554 8.99425 10.3189C9.26477 10.134 9.89837 9.70078 9.8539 8.83479C9.82573 8.31648 9.35823 7.57644 8.97101 7.04686C8.40461 6.27201 7.91648 5.80531 7.52322 5.66064C7.15602 5.52392 6.77201 5.52101 6.38107 5.65219C5.57131 5.92503 4.98338 6.41809 4.68097 7.07805C4.3865 7.7205 4.39304 8.45883 4.69998 9.21366C5.42493 10.9921 6.43982 12.5492 7.72322 13.8482C9.01547 15.1247 10.5724 16.1396 12.3516 16.865C12.7366 17.0216 13.1175 17.1 13.4836 17.1C13.8347 17.1 14.1722 17.0279 14.4867 16.8838C15.1467 16.5813 15.6396 15.9934 15.9128 15.1827C16.0435 14.7926 16.0406 14.4088 15.905 14.0441C15.7593 13.6481 15.2925 13.16 14.5178 12.5936C13.9881 12.2064 13.2481 11.7389 12.7277 11.7106C11.8636 11.6672 11.4308 12.2997 11.2459 12.5702C11.0106 12.9142 11.0987 13.3837 11.4426 13.619C11.7867 13.8543 12.2561 13.7662 12.4914 13.4222C12.5735 13.3022 12.6204 13.2477 12.6473 13.2238C13.0708 13.3595 14.2786 14.2469 14.496 14.5869C14.5013 14.6086 14.5025 14.6417 14.4824 14.702C14.3872 14.9846 14.2016 15.3545 13.858 15.512C13.5362 15.6593 13.1705 15.569 12.9208 15.4675C11.3265 14.8175 9.93469 13.9115 8.79022 12.7811C7.6533 11.6303 6.74736 10.2384 6.09777 8.64475C5.99596 8.39445 5.90551 8.02855 6.0529 7.70702C6.21034 7.36346 6.58036 7.17775 6.86205 7.08278C6.92221 7.06266 6.95531 7.06376 6.97825 7.0693C7.31839 7.2871 8.20521 8.49414 8.34103 8.91779C8.31708 8.94424 8.26266 8.99123 8.14264 9.07322Z" fill="white"/>
</svg>

<svg width="22" height="24" fill="none" xmlns="http://www.w3.org/2000/svg"><path d="M19.714 2.754C17.91.984 14.991.127 11.04.204 7.054.282 4.391.982 2.657 2.405.98 3.781.199 5.795.199 8.742v3.008c0 3.48 1.865 7.304 5.428 7.883a.754.754 0 10.242-1.49c-2.703-.439-4.16-3.621-4.16-6.393V8.742c0-4.226 1.565-6.876 9.36-7.03 3.533-.07 6.084.644 7.589 2.12 1.172 1.15 1.742 2.755 1.742 4.91v3.008c0 4.555-2.044 6.564-7.288 7.155H9.394c-.2 0-.392.08-.533.221l-2.62 2.62a.755.755 0 001.067 1.067l2.399-2.399h3.447a.724.724 0 00.084-.005c3-.333 5.056-1.114 6.466-2.457 1.484-1.413 2.205-3.442 2.205-6.202V8.742c0-2.545-.738-4.56-2.195-5.988z" fill="#fff"/><path d="M11.526 5.127c1.216 0 2.36.474 3.219 1.334a4.522 4.522 0 011.333 3.219.754.754 0 001.51 0 6.02 6.02 0 00-1.776-4.286 6.02 6.02 0 00-4.286-1.776.754.754 0 100 1.51z" fill="#fff"/><path d="M11.526 7.78a1.904 1.904 0 011.9 1.9.754.754 0 101.508 0 3.413 3.413 0 00-3.408-3.408.754.754 0 000 1.509zM8.143 9.073a.755.755 0 00.851 1.246c.27-.185.904-.618.86-1.484-.028-.519-.496-1.259-.883-1.788-.566-.775-1.055-1.242-1.448-1.386a1.672 1.672 0 00-1.142-.009c-.81.273-1.398.766-1.7 1.426-.295.643-.288 1.38.019 2.136.725 1.778 1.74 3.335 3.023 4.634 1.292 1.277 2.85 2.292 4.629 3.017.385.157.765.235 1.132.235a2.39 2.39 0 001.003-.216c.66-.303 1.153-.89 1.426-1.701.13-.39.128-.774-.008-1.139-.146-.396-.612-.884-1.387-1.45-.53-.388-1.27-.855-1.79-.883-.864-.044-1.297.589-1.482.86a.755.755 0 101.245.851c.082-.12.13-.174.156-.198.424.136 1.632 1.023 1.849 1.363.005.022.006.055-.014.115-.095.283-.28.652-.624.81-.322.147-.688.057-.937-.045-1.595-.65-2.986-1.556-4.13-2.686-1.138-1.15-2.044-2.543-2.693-4.136-.102-.25-.192-.616-.045-.938.157-.344.527-.53.809-.624.06-.02.093-.02.116-.014.34.218 1.227 1.425 1.363 1.849a1.221 1.221 0 01-.198.155z" fill="#fff"/></svg>
